X:4433
T:Mrs Parker's Waltz
O:england
R:Waltz
M:3/4
L:1/8
K:G
D2|\
G2 GA BG | c2 cB Ac | B2 BA GB | AG FE FD |\
G2 GA BG | c2 cB AG | FE DE FD | G4 :|
|:Bc |\
d2 dc Bd | c2 cB Ac | B2 BA GB | AG FE D2 |\
d2 Bc de | c2 AB cd | BA GB AF | G4 :|


